projects/cadence/horizontal/color/cadence-horizontal-color.svg

<svg xmlns="http://www.w3.org/2000/svg" role="img" viewBox="12.86 83.86 1463.28 579.28"><path fill="#1c1c2c" fill-rule="evenodd" d="M277 114.951c0 10.098-4.438 18.191-12.125 22.113-9.569 4.881-26.524 6.72-32.669 3.542-4.394-2.272-10.153-8.236-11.831-12.251-.771-1.845-2.118-3.355-2.993-3.355s-7.437 2.303-14.583 5.117l-12.992 5.116.577 3.134c.318 1.723.85 6.283 1.184 10.133.569 6.563.422 7.286-2.346 11.573-5.331 8.254-18.58 17.108-27.632 18.466-5.875.881-13.041-1.521-18.512-6.204-5.249-4.494-5.292-4.476-18.87 7.63l-10.291 9.176 3.044 3.467c4.266 4.859 6.193 9.971 6.218 16.498.025 6.614-1.515 10.002-8.459 18.61-10.246 12.702-19.294 15.916-31.618 11.231-2.969-1.128-5.735-1.69-6.147-1.249C75.593 239.155 64 261.642 64 262.826c0 .639 3.107 4.214 6.905 7.944 6.065 5.958 6.993 7.364 7.621 11.554 1.819 12.13-6.687 33.152-15.012 37.102-1.824.866-5.723 1.581-8.665 1.589-10.703.029-12.93 3.648-13.189 21.431l-.16 10.945 3.168.662c5.47 1.141 12.332 5.877 15.301 10.559 5.133 8.094 6.496 25.553 2.703 34.629-1.78 4.261-9.273 10.18-15.84 12.512-3.327 1.182-4.832 2.272-4.832 3.499 0 1.736 4.509 23.506 5.592 26.998.463 1.492 1.832 1.75 9.275 1.75 7.713 0 9.202.304 12.748 2.604 7.216 4.678 14.357 18.167 15.941 30.108.857 6.457-.933 10.54-7.981 18.206-5.55 6.037-5.587 6.118-4.238 9.336 1.038 2.475 12.678 21.06 14.098 22.509.142.145 2.914-.923 6.161-2.372 11.998-5.356 19.828-3.106 31.089 8.932 11.403 12.189 13.521 21.335 7.437 32.116-1.717 3.042-3.122 5.984-3.122 6.538 0 1.026 19.284 16.811 21.642 17.716.711.273 4.722-1.798 8.914-4.602 4.191-2.803 8.733-5.376 10.092-5.718 6.761-1.696 18.601 2.559 28.796 10.349 7.215 5.514 8.348 8.042 9.149 20.42l.686 10.618 11.611 3.622c6.385 1.992 12.51 3.617 13.61 3.611 1.343-.007 3.271-1.983 5.865-6.01 7.537-11.698 12.636-13.931 27.635-12.104 16.332 1.99 24.278 7.591 27.834 19.621l1.773 6 15.197.276 15.196.276v-3.083c0-15.244 12.052-25.433 31.588-26.704 12.86-.837 17.551 1.391 24.036 11.419 1.844 2.851 3.763 5.437 4.264 5.747.501.309 6.752-1.781 13.893-4.646l12.982-5.208-.523-10.241c-.633-12.408.132-14.647 7.216-21.122 9.98-9.121 23.5-14.38 31.46-12.237 2 .539 6.149 3.219 9.22 5.957l5.585 4.977 10.888-10.311 10.889-10.311-19.682-19.89-19.682-19.89-2.509 1.996c-1.38 1.097-6.697 5.406-11.817 9.575-57.353 46.705-129.865 60.517-198.308 37.773-8.456-2.81-34.399-15.506-44.461-21.759-68.21-42.387-105.221-123.415-93.452-204.594 8.45-58.281 43.661-112.171 93.39-142.932 18.755-11.601 42.419-22.107 59.523-26.425 22.057-5.569 57.18-7.702 77.464-4.705 38.77 5.729 71.23 19.665 103.265 44.337 8.248 6.352 9.972 7.303 11.277 6.22 1.589-1.319 22.97-30.189 27.972-37.77 2.313-3.505 2.634-4.683 1.787-6.544-.836-1.833-11.813-11.734-19.32-17.424-1.277-.967-2.53-.363-7 3.376-10.278 8.597-17.386 9.689-28.677 4.405-10.091-4.722-17.109-10.423-19.509-15.85-1.715-3.876-1.943-5.921-1.472-13.192l.558-8.605-12.93-4.267c-7.112-2.347-13.668-4.123-14.57-3.946-.901.177-3.26 3.001-5.242 6.276-2.08 3.438-5.444 7.242-7.957 9-4.233 2.961-4.645 3.041-14.774 2.86-19.987-.357-28.18-5.237-32.36-19.275L307.915 112H277v2.951m4.068 75.135c-23.144 2.996-57.58 15.22-76.568 27.181-35.408 22.304-62.815 56.957-76.903 97.233-8.191 23.418-10.132 37.222-9.277 65.975.872 29.311 5.247 48.253 16.686 72.243 25.31 53.079 73.413 91.027 130.147 102.669 19.063 3.912 44.103 4.748 62.759 2.097 35.805-5.089 72.385-22.347 98.198-46.327l8.05-7.479-19.321-19.339C404.213 473.703 395.18 465 394.766 465c-.415 0-6.079 3.972-12.588 8.826-13.57 10.122-29.258 18.486-43.678 23.287l-10 3.33-26 .029c-25.969.028-26.01.025-34.5-2.823-24.227-8.128-40.12-17.647-55.721-33.375-17.726-17.871-29.096-39.137-34.902-65.274-2.464-11.092-2.449-38.58.028-50.5 5.032-24.217 15.229-43.585 32.52-61.769 20.908-21.988 47.654-35.904 74.575-38.803 17.041-1.834 39.806-.707 51 2.526 11.969 3.457 35.105 14.899 45.077 22.292l8.028 5.953 9.553-10.6c5.254-5.829 13.75-15.255 18.88-20.945l9.328-10.347-3.933-3.422c-14.185-12.34-42.762-27.845-64.933-35.231-15.399-5.129-25.213-6.906-45-8.145-17.968-1.125-22.224-1.115-31.432.077M716 296.444v38.444l-9.989-6.333c-5.494-3.484-12.86-7.483-16.368-8.887-20.146-8.065-45.062-7.231-64.442 2.157-22.912 11.098-40.933 32.334-46.824 55.175-2.154 8.352-2.484 34.005-.54 42 .735 3.025 3.739 10.481 6.676 16.569 8.502 17.627 21.971 30.669 40.643 39.354 12.666 5.89 21.238 7.422 38.195 6.824 19.578-.689 30.2-4.229 45.649-15.211l6.5-4.62.289 8.542.289 8.542H749V258h-33v38.444m126.729 18.534c-20.444 3.696-40.89 16.052-52.519 31.739-7.172 9.674-13.784 23.999-15.807 34.246-2.013 10.199-1.443 31.173 1.099 40.39 7.282 26.408 28.532 48.15 55.741 57.031 19.024 6.211 39.151 5.535 58.959-1.98 11.559-4.385 30.491-17.934 34.8-24.907 2.172-3.514 2.18-3.64.359-5.699-1.023-1.158-6.043-5.222-11.154-9.032l-9.292-6.928-6.708 5.741c-7.875 6.741-15.308 11.661-21.363 14.141-3.457 1.417-7.22 1.78-18.436 1.78h-14.092l-7.823-3.971c-9.907-5.028-18.493-13.497-24.299-23.966-4.948-8.922-5.103-11.75-.694-12.688 1.65-.351 30.407-.692 63.904-.757l60.905-.118-.622-12.25c-1.06-20.864-3.896-31.752-11.685-44.864-10.49-17.657-27.922-30.623-48.114-35.787-8.824-2.256-26.246-3.371-33.159-2.121m181.564.53c-7.832 1.702-17.01 6.081-25.043 11.949l-6.25 4.566V318h-34v161h34l.053-41.25c.069-53.435.772-65.57 4.185-72.25 4.282-8.379 12.554-15.648 20.943-18.401 5.254-1.725 21.076-1.507 26.722.369 6.071 2.016 11.052 6.209 16.583 13.96l4.478 6.276 1.008 37.398c.555 20.569 1.013 45.61 1.018 55.648L1068 479h33.32l-.644-56.75c-.707-62.308-.871-64.109-6.914-75.657-4.781-9.136-17.395-21.367-26.762-25.95-12.883-6.303-28.625-8.196-42.707-5.135m171.436-.541c-28.946 5.297-53.609 24.943-65.363 52.066-4.319 9.968-5.588 18.84-5.174 36.198.323 13.58.512 14.712 3.907 23.445 5.055 13.002 9.186 19.425 18.901 29.386 9.461 9.701 17.435 15.267 28.426 19.843 12.163 5.063 17.697 6.095 32.696 6.095 16.466 0 26.192-1.692 36.062-6.275 12.857-5.97 32.816-22.779 32.816-27.637 0-1.825-6.921-7.712-18.833-16.018l-3.332-2.324-4.168 3.988c-6.309 6.037-14.555 11.86-21.199 14.971-5.613 2.629-6.774 2.795-19.52 2.795h-13.552l-7.873-3.891c-5.781-2.857-9.911-5.914-15.538-11.5-8.621-8.559-12.197-14.892-14.471-25.626-1.864-8.802-1.865-14.153-.003-22.983 5.285-25.061 26.865-42.5 52.594-42.5 13.964 0 24.554 4.705 36.578 16.251 5.097 4.894 6.663 5.884 8.154 5.154 3.677-1.803 23.088-15.929 23.125-16.828.021-.508-4.35-5.234-9.712-10.501-8.083-7.94-11.487-10.478-19.907-14.844-5.587-2.897-13.687-6.181-18-7.298-8.843-2.291-28.944-3.371-36.614-1.967m160.318.171c-15.021 2.49-31.447 10.631-42.727 21.175-11.343 10.603-18.249 21.434-23.404 36.708-3.063 9.076-3.2 10.16-3.228 25.479-.027 14.785.175 16.592 2.649 23.793 8.773 25.532 22.074 40.853 44.904 51.723 30.342 14.447 67.092 9.885 93.082-11.553 5.663-4.67 13.647-13.736 13.619-15.463-.007-.432-8.449-6.853-19.558-14.876l-3.29-2.377-6.294 5.696c-7.934 7.18-13.579 10.926-20.695 13.733-4.773 1.883-7.608 2.219-19.105 2.262-12.692.047-13.889-.12-20-2.788-3.575-1.561-8.525-4.392-11-6.293-8.395-6.445-18.509-20.971-20.532-29.486l-.624-2.629 64.578-.745 64.578-.745-.017-5.126c-.027-7.921-1.847-23.426-3.595-30.626-3.657-15.066-13.733-30.537-26.495-40.683-13.745-10.927-24.875-15.527-41.749-17.256-11.688-1.197-13.449-1.191-21.097.077m-885.315.843c-3.722.472-9.797 1.817-13.5 2.99-9.605 3.042-24.364 10.514-27.749 14.047l-2.885 3.011 2.782 5.736c2.881 5.941 10.509 18.235 11.313 18.235.251 0 3.536-1.829 7.299-4.064 12.28-7.296 15.762-8.235 32.324-8.722 17.951-.527 21.384.434 28.055 7.854 4.752 5.286 6.041 9.055 7.195 21.038l.636 6.605-9.851.683c-20.55 1.423-43.177 3.727-51.746 5.268-16.808 3.022-29.487 11.571-36.271 24.455-2.747 5.217-2.834 5.844-2.834 20.383 0 13.844.187 15.385 2.429 20 3.441 7.083 16.454 19.901 23.202 22.855 25.46 11.144 51.783 6.96 72.861-11.582 4.053-3.565 4.591-3.779 5.5-2.192 2.682 4.685 8.335 9.701 14.173 12.575 5.998 2.953 7.354 3.207 19.392 3.642l12.943.467v-28.986l-4.797-.569c-5.782-.684-9.84-2.41-10.808-4.595-.393-.888-1.083-19.961-1.532-42.383-.896-44.685-1.307-48.069-7.197-59.232-6.009-11.388-19.032-21.88-32.369-26.077-5.766-1.815-28.817-2.676-38.565-1.442M653 345.035c-18.826 3.344-35.836 19.095-42.045 38.933-5.456 17.431-.09 38.031 13.601 52.217 26.416 27.372 69.33 20.087 86.564-14.696l4.38-8.84-.008-14.211-.009-14.211-4.364-8.606c-11.303-22.292-34.901-34.711-58.119-30.586m705.999.062c-8.635.936-16.516 5.226-24.499 13.335-6.989 7.1-14.236 19.209-13.165 21.999.271.706 1.938 1.574 3.704 1.927 1.766.353 22.766.642 46.665.642h43.455l-.703-3.25c-2.006-9.279-11.244-21.491-21.189-28.01-3.722-2.439-7.667-4.797-8.767-5.239-2.971-1.195-19.195-2.089-25.501-1.404m-521.186 1.781c-2.577 1.034-6.28 2.865-8.227 4.069-5.8 3.584-14.417 13.964-18.704 22.529l-4.015 8.021 2.317.652c2.603.732 92.816 1.11 92.816.389 0-.255-.96-3.067-2.133-6.25-4.298-11.662-13.734-22.224-25.036-28.026-4.925-2.528-6.36-2.757-18.831-3.001-11.306-.221-14.262.042-18.187 1.617M488 410.589c-18.054 1.677-26.436 3.079-30.41 5.085-10.138 5.118-14.232 16.025-9.694 25.826 8.379 18.098 39.978 19.097 57.485 1.817 7.038-6.947 9.655-13.227 10.347-24.834l.566-9.483-6.897.121c-3.793.067-13.422.727-21.397 1.468"/></svg>

<svg xmlns="http://www.w3.org/2000/svg" width="1500" height="757" viewBox="0 0 1500 757" version="1.1"><path d="M 277 114.951 C 277 125.049, 272.562 133.142, 264.875 137.064 C 255.306 141.945, 238.351 143.784, 232.206 140.606 C 227.812 138.334, 222.053 132.370, 220.375 128.355 C 219.604 126.510, 218.257 125, 217.382 125 C 216.507 125, 209.945 127.303, 202.799 130.117 L 189.807 135.233 190.384 138.367 C 190.702 140.090, 191.234 144.650, 191.568 148.500 C 192.137 155.063, 191.990 155.786, 189.222 160.073 C 183.891 168.327, 170.642 177.181, 161.590 178.539 C 155.715 179.420, 148.549 177.018, 143.078 172.335 C 137.829 167.841, 137.786 167.859, 124.208 179.965 L 113.917 189.141 116.961 192.608 C 121.227 197.467, 123.154 202.579, 123.179 209.106 C 123.204 215.720, 121.664 219.108, 114.720 227.716 C 104.474 240.418, 95.426 243.632, 83.102 238.947 C 80.133 237.819, 77.367 237.257, 76.955 237.698 C 75.593 239.155, 64 261.642, 64 262.826 C 64 263.465, 67.107 267.040, 70.905 270.770 C 76.970 276.728, 77.898 278.134, 78.526 282.324 C 80.345 294.454, 71.839 315.476, 63.514 319.426 C 61.690 320.292, 57.791 321.007, 54.849 321.015 C 44.146 321.044, 41.919 324.663, 41.660 342.446 L 41.500 353.391 44.668 354.053 C 50.138 355.194, 57 359.930, 59.969 364.612 C 65.102 372.706, 66.465 390.165, 62.672 399.241 C 60.892 403.502, 53.399 409.421, 46.832 411.753 C 43.505 412.935, 42 414.025, 42 415.252 C 42 416.988, 46.509 438.758, 47.592 442.250 C 48.055 443.742, 49.424 444, 56.867 444 C 64.580 444, 66.069 444.304, 69.615 446.604 C 76.831 451.282, 83.972 464.771, 85.556 476.712 C 86.413 483.169, 84.623 487.252, 77.575 494.918 C 72.025 500.955, 71.988 501.036, 73.337 504.254 C 74.375 506.729, 86.015 525.314, 87.435 526.763 C 87.577 526.908, 90.349 525.840, 93.596 524.391 C 105.594 519.035, 113.424 521.285, 124.685 533.323 C 136.088 545.512, 138.206 554.658, 132.122 565.439 C 130.405 568.481, 129 571.423, 129 571.977 C 129 573.003, 148.284 588.788, 150.642 589.693 C 151.353 589.966, 155.364 587.895, 159.556 585.091 C 163.747 582.288, 168.289 579.715, 169.648 579.373 C 176.409 577.677, 188.249 581.932, 198.444 589.722 C 205.659 595.236, 206.792 597.764, 207.593 610.142 L 208.279 620.760 219.890 624.382 C 226.275 626.374, 232.400 627.999, 233.500 627.993 C 234.843 627.986, 236.771 626.010, 239.365 621.983 C 246.902 610.285, 252.001 608.052, 267 609.879 C 283.332 611.869, 291.278 617.470, 294.834 629.500 L 296.607 635.500 311.804 635.776 L 327 636.052 327 632.969 C 327 617.725, 339.052 607.536, 358.588 606.265 C 371.448 605.428, 376.139 607.656, 382.624 617.684 C 384.468 620.535, 386.387 623.121, 386.888 623.431 C 387.389 623.740, 393.640 621.650, 400.781 618.785 L 413.763 613.577 413.240 603.336 C 412.607 590.928, 413.372 588.689, 420.456 582.214 C 430.436 573.093, 443.956 567.834, 451.916 569.977 C 453.916 570.516, 458.065 573.196, 461.136 575.934 L 466.721 580.911 477.609 570.600 L 488.498 560.289 468.816 540.399 L 449.134 520.509 446.625 522.505 C 445.245 523.602, 439.928 527.911, 434.808 532.080 C 377.455 578.785, 304.943 592.597, 236.500 569.853 C 228.044 567.043, 202.101 554.347, 192.039 548.094 C 123.829 505.707, 86.818 424.679, 98.587 343.500 C 107.037 285.219, 142.248 231.329, 191.977 200.568 C 210.732 188.967, 234.396 178.461, 251.500 174.143 C 273.557 168.574, 308.680 166.441, 328.964 169.438 C 367.734 175.167, 400.194 189.103, 432.229 213.775 C 440.477 220.127, 442.201 221.078, 443.506 219.995 C 445.095 218.676, 466.476 189.806, 471.478 182.225 C 473.791 178.720, 474.112 177.542, 473.265 175.681 C 472.429 173.848, 461.452 163.947, 453.945 158.257 C 452.668 157.290, 451.415 157.894, 446.945 161.633 C 436.667 170.230, 429.559 171.322, 418.268 166.038 C 408.177 161.316, 401.159 155.615, 398.759 150.188 C 397.044 146.312, 396.816 144.267, 397.287 136.996 L 397.845 128.391 384.915 124.124 C 377.803 121.777, 371.247 120.001, 370.345 120.178 C 369.444 120.355, 367.085 123.179, 365.103 126.454 C 363.023 129.892, 359.659 133.696, 357.146 135.454 C 352.913 138.415, 352.501 138.495, 342.372 138.314 C 322.385 137.957, 314.192 133.077, 310.012 119.039 L 307.915 112 292.458 112 L 277 112 277 114.951 M 281.068 190.086 C 257.924 193.082, 223.488 205.306, 204.500 217.267 C 169.092 239.571, 141.685 274.224, 127.597 314.500 C 119.406 337.918, 117.465 351.722, 118.320 380.475 C 119.192 409.786, 123.567 428.728, 135.006 452.718 C 160.316 505.797, 208.419 543.745, 265.153 555.387 C 284.216 559.299, 309.256 560.135, 327.912 557.484 C 363.717 552.395, 400.297 535.137, 426.110 511.157 L 434.160 503.678 414.839 484.339 C 404.213 473.703, 395.180 465, 394.766 465 C 394.351 465, 388.687 468.972, 382.178 473.826 C 368.608 483.948, 352.920 492.312, 338.500 497.113 L 328.500 500.443 302.500 500.472 C 276.531 500.500, 276.490 500.497, 268 497.649 C 243.773 489.521, 227.880 480.002, 212.279 464.274 C 194.553 446.403, 183.183 425.137, 177.377 399 C 174.913 387.908, 174.928 360.420, 177.405 348.500 C 182.437 324.283, 192.634 304.915, 209.925 286.731 C 230.833 264.743, 257.579 250.827, 284.500 247.928 C 301.541 246.094, 324.306 247.221, 335.500 250.454 C 347.469 253.911, 370.605 265.353, 380.577 272.746 L 388.605 278.699 398.158 268.099 C 403.412 262.270, 411.908 252.844, 417.038 247.154 L 426.366 236.807 422.433 233.385 C 408.248 221.045, 379.671 205.540, 357.500 198.154 C 342.101 193.025, 332.287 191.248, 312.500 190.009 C 294.532 188.884, 290.276 188.894, 281.068 190.086 M 716 296.444 L 716 334.888 706.011 328.555 C 700.517 325.071, 693.151 321.072, 689.643 319.668 C 669.497 311.603, 644.581 312.437, 625.201 321.825 C 602.289 332.923, 584.268 354.159, 578.377 377 C 576.223 385.352, 575.893 411.005, 577.837 419 C 578.572 422.025, 581.576 429.481, 584.513 435.569 C 593.015 453.196, 606.484 466.238, 625.156 474.923 C 637.822 480.813, 646.394 482.345, 663.351 481.747 C 682.929 481.058, 693.551 477.518, 709 466.536 L 715.500 461.916 715.789 470.458 L 716.078 479 732.539 479 L 749 479 749 368.500 L 749 258 732.500 258 L 716 258 716 296.444 M 842.729 314.978 C 822.285 318.674, 801.839 331.030, 790.210 346.717 C 783.038 356.391, 776.426 370.716, 774.403 380.963 C 772.390 391.162, 772.960 412.136, 775.502 421.353 C 782.784 447.761, 804.034 469.503, 831.243 478.384 C 850.267 484.595, 870.394 483.919, 890.202 476.404 C 901.761 472.019, 920.693 458.470, 925.002 451.497 C 927.174 447.983, 927.182 447.857, 925.361 445.798 C 924.338 444.640, 919.318 440.576, 914.207 436.766 L 904.915 429.838 898.207 435.579 C 890.332 442.320, 882.899 447.240, 876.844 449.720 C 873.387 451.137, 869.624 451.500, 858.408 451.500 L 844.316 451.500 836.493 447.529 C 826.586 442.501, 818 434.032, 812.194 423.563 C 807.246 414.641, 807.091 411.813, 811.500 410.875 C 813.150 410.524, 841.907 410.183, 875.404 410.118 L 936.309 410 935.687 397.750 C 934.627 376.886, 931.791 365.998, 924.002 352.886 C 913.512 335.229, 896.080 322.263, 875.888 317.099 C 867.064 314.843, 849.642 313.728, 842.729 314.978 M 1024.293 315.508 C 1016.461 317.210, 1007.283 321.589, 999.250 327.457 L 993 332.023 993 325.011 L 993 318 976 318 L 959 318 959 398.500 L 959 479 976 479 L 993 479 993.053 437.750 C 993.122 384.315, 993.825 372.180, 997.238 365.500 C 1001.520 357.121, 1009.792 349.852, 1018.181 347.099 C 1023.435 345.374, 1039.257 345.592, 1044.903 347.468 C 1050.974 349.484, 1055.955 353.677, 1061.486 361.428 L 1065.964 367.704 1066.972 405.102 C 1067.527 425.671, 1067.985 450.712, 1067.990 460.750 L 1068 479 1084.660 479 L 1101.320 479 1100.676 422.250 C 1099.969 359.942, 1099.805 358.141, 1093.762 346.593 C 1088.981 337.457, 1076.367 325.226, 1067 320.643 C 1054.117 314.340, 1038.375 312.447, 1024.293 315.508 M 1195.729 314.967 C 1166.783 320.264, 1142.120 339.910, 1130.366 367.033 C 1126.047 377.001, 1124.778 385.873, 1125.192 403.231 C 1125.515 416.811, 1125.704 417.943, 1129.099 426.676 C 1134.154 439.678, 1138.285 446.101, 1148 456.062 C 1157.461 465.763, 1165.435 471.329, 1176.426 475.905 C 1188.589 480.968, 1194.123 482, 1209.122 482 C 1225.588 482, 1235.314 480.308, 1245.184 475.725 C 1258.041 469.755, 1278 452.946, 1278 448.088 C 1278 446.263, 1271.079 440.376, 1259.167 432.070 L 1255.835 429.746 1251.667 433.734 C 1245.358 439.771, 1237.112 445.594, 1230.468 448.705 C 1224.855 451.334, 1223.694 451.500, 1210.948 451.500 L 1197.396 451.500 1189.523 447.609 C 1183.742 444.752, 1179.612 441.695, 1173.985 436.109 C 1165.364 427.550, 1161.788 421.217, 1159.514 410.483 C 1157.650 401.681, 1157.649 396.330, 1159.511 387.500 C 1164.796 362.439, 1186.376 345, 1212.105 345 C 1226.069 345, 1236.659 349.705, 1248.683 361.251 C 1253.780 366.145, 1255.346 367.135, 1256.837 366.405 C 1260.514 364.602, 1279.925 350.476, 1279.962 349.577 C 1279.983 349.069, 1275.612 344.343, 1270.250 339.076 C 1262.167 331.136, 1258.763 328.598, 1250.343 324.232 C 1244.756 321.335, 1236.656 318.051, 1232.343 316.934 C 1223.500 314.643, 1203.399 313.563, 1195.729 314.967 M 1356.047 315.138 C 1341.026 317.628, 1324.600 325.769, 1313.320 336.313 C 1301.977 346.916, 1295.071 357.747, 1289.916 373.021 C 1286.853 382.097, 1286.716 383.181, 1286.688 398.500 C 1286.661 413.285, 1286.863 415.092, 1289.337 422.293 C 1298.110 447.825, 1311.411 463.146, 1334.241 474.016 C 1364.583 488.463, 1401.333 483.901, 1427.323 462.463 C 1432.986 457.793, 1440.970 448.727, 1440.942 447 C 1440.935 446.568, 1432.493 440.147, 1421.384 432.124 L 1418.094 429.747 1411.800 435.443 C 1403.866 442.623, 1398.221 446.369, 1391.105 449.176 C 1386.332 451.059, 1383.497 451.395, 1372 451.438 C 1359.308 451.485, 1358.111 451.318, 1352 448.650 C 1348.425 447.089, 1343.475 444.258, 1341 442.357 C 1332.605 435.912, 1322.491 421.386, 1320.468 412.871 L 1319.844 410.242 1384.422 409.497 L 1449 408.752 1448.983 403.626 C 1448.956 395.705, 1447.136 380.200, 1445.388 373 C 1441.731 357.934, 1431.655 342.463, 1418.893 332.317 C 1405.148 321.390, 1394.018 316.790, 1377.144 315.061 C 1365.456 313.864, 1363.695 313.870, 1356.047 315.138 M 470.732 315.981 C 467.010 316.453, 460.935 317.798, 457.232 318.971 C 447.627 322.013, 432.868 329.485, 429.483 333.018 L 426.598 336.029 429.380 341.765 C 432.261 347.706, 439.889 360, 440.693 360 C 440.944 360, 444.229 358.171, 447.992 355.936 C 460.272 348.640, 463.754 347.701, 480.316 347.214 C 498.267 346.687, 501.700 347.648, 508.371 355.068 C 513.123 360.354, 514.412 364.123, 515.566 376.106 L 516.202 382.711 506.351 383.394 C 485.801 384.817, 463.174 387.121, 454.605 388.662 C 437.797 391.684, 425.118 400.233, 418.334 413.117 C 415.587 418.334, 415.500 418.961, 415.500 433.500 C 415.500 447.344, 415.687 448.885, 417.929 453.500 C 421.370 460.583, 434.383 473.401, 441.131 476.355 C 466.591 487.499, 492.914 483.315, 513.992 464.773 C 518.045 461.208, 518.583 460.994, 519.492 462.581 C 522.174 467.266, 527.827 472.282, 533.665 475.156 C 539.663 478.109, 541.019 478.363, 553.057 478.798 L 566 479.265 566 464.772 L 566 450.279 561.203 449.710 C 555.421 449.026, 551.363 447.300, 550.395 445.115 C 550.002 444.227, 549.312 425.154, 548.863 402.732 C 547.967 358.047, 547.556 354.663, 541.666 343.500 C 535.657 332.112, 522.634 321.620, 509.297 317.423 C 503.531 315.608, 480.480 314.747, 470.732 315.981 M 653 345.035 C 634.174 348.379, 617.164 364.130, 610.955 383.968 C 605.499 401.399, 610.865 421.999, 624.556 436.185 C 650.972 463.557, 693.886 456.272, 711.120 421.489 L 715.500 412.649 715.492 398.438 L 715.483 384.227 711.119 375.621 C 699.816 353.329, 676.218 340.910, 653 345.035 M 1358.999 345.097 C 1350.364 346.033, 1342.483 350.323, 1334.500 358.432 C 1327.511 365.532, 1320.264 377.641, 1321.335 380.431 C 1321.606 381.137, 1323.273 382.005, 1325.039 382.358 C 1326.805 382.711, 1347.805 383, 1371.704 383 L 1415.159 383 1414.456 379.750 C 1412.450 370.471, 1403.212 358.259, 1393.267 351.740 C 1389.545 349.301, 1385.600 346.943, 1384.500 346.501 C 1381.529 345.306, 1365.305 344.412, 1358.999 345.097 M 837.813 346.878 C 835.236 347.912, 831.533 349.743, 829.586 350.947 C 823.786 354.531, 815.169 364.911, 810.882 373.476 L 806.867 381.497 809.184 382.149 C 811.787 382.881, 902 383.259, 902 382.538 C 902 382.283, 901.040 379.471, 899.867 376.288 C 895.569 364.626, 886.133 354.064, 874.831 348.262 C 869.906 345.734, 868.471 345.505, 856 345.261 C 844.694 345.040, 841.738 345.303, 837.813 346.878 M 488 410.589 C 469.946 412.266, 461.564 413.668, 457.590 415.674 C 447.452 420.792, 443.358 431.699, 447.896 441.500 C 456.275 459.598, 487.874 460.597, 505.381 443.317 C 512.419 436.370, 515.036 430.090, 515.728 418.483 L 516.294 409 509.397 409.121 C 505.604 409.188, 495.975 409.848, 488 410.589" stroke="none" fill="#1c1c2c" fill-rule="evenodd"/></svg>
